src/icons/media-word.svg

<svg xmlns="http://www.w3.org/2000/svg" width="512" height="512" viewBox="0 0 512 512">
    <path d="M96 89.5v320h320v-320H96zm222.9 244.3h-38.4l-26.7-86.4-27.7 86.4h-38.4L144 185.5h39.5l25.6 96 30.9-96h29.9l28.8 96 27.7-96h39.5l-47 148.3z"/>
</svg>

<?xml version="1.0" encoding="UTF-8"?>
<svg width="512px" height="512px" viewBox="0 0 512 512" version="1.1" xmlns="http://www.w3.org/2000/svg" xmlns:xlink="http://www.w3.org/1999/xlink">
    <!-- Generator: Sketch 62 (91390) - https://sketch.com -->
    <title>media-word</title>
    <desc>Created with Sketch.</desc>
    <g id="media-word" stroke="none" stroke-width="1" fill="none" fill-rule="evenodd">
        <path d="M96,89.5 L96,409.5 L416,409.5 L416,89.5 L96,89.5 Z M318.9,333.8 L280.5,333.8 L253.8,247.4 L226.1,333.8 L187.7,333.8 L144,185.5 L183.5,185.5 L209.1,281.5 L240,185.5 L269.9,185.5 L298.7,281.5 L326.4,185.5 L365.9,185.5 L318.9,333.8 Z" id="Shape" fill="#000000" fill-rule="nonzero"></path>
    </g>
</svg>
